icons/stack-16.svg

<svg xmlns="http://www.w3.org/2000/svg" width="16" height="16" viewBox="0 0 16 16"><path d="M7.122.392a1.75 1.75 0 011.756 0l5.003 2.902c.83.481.83 1.68 0 2.162L8.878 8.358a1.75 1.75 0 01-1.756 0L2.119 5.456a1.251 1.251 0 010-2.162zM8.125 1.69a.248.248 0 00-.25 0l-4.63 2.685 4.63 2.685a.248.248 0 00.25 0l4.63-2.685zM1.601 7.789a.75.75 0 011.025-.273l5.249 3.044a.248.248 0 00.25 0l5.249-3.044a.75.75 0 01.752 1.298l-5.248 3.044a1.75 1.75 0 01-1.756 0L1.874 8.814A.75.75 0 011.6 7.789zm0 3.5a.75.75 0 011.025-.273l5.249 3.044a.248.248 0 00.25 0l5.249-3.044a.75.75 0 01.752 1.298l-5.248 3.044a1.75 1.75 0 01-1.756 0l-5.248-3.044a.75.75 0 01-.273-1.025z"/></svg>

<svg xmlns="http://www.w3.org/2000/svg" width="16" height="16" viewBox="0 0 16 16">
  <defs/>
  <path d="M7.122,0.392 C7.665,0.077 8.335,0.077 8.878,0.392 L13.881,3.294 C14.711,3.775 14.711,4.974 13.881,5.456 L8.878,8.358 C8.335,8.673 7.665,8.673 7.122,8.358 L2.119,5.456 C1.734,5.232 1.497,4.82 1.497,4.375 C1.497,3.93 1.734,3.518 2.119,3.294 Z M8.125,1.69 C8.048,1.645 7.952,1.645 7.875,1.69 L3.245,4.375 L7.875,7.06 C7.952,7.105 8.048,7.105 8.125,7.06 L12.755,4.375 Z M1.601,7.789 C1.809,7.431 2.268,7.308 2.626,7.516 L7.875,10.56 C7.952,10.605 8.048,10.605 8.125,10.56 L13.374,7.516 C13.732,7.308 14.191,7.431 14.399,7.789 C14.607,8.147 14.484,8.606 14.126,8.814 L8.878,11.858 C8.335,12.173 7.665,12.173 7.122,11.858 L1.874,8.814 C1.515,8.607 1.392,8.148 1.6,7.789 Z M1.601,11.289 C1.809,10.931 2.268,10.808 2.626,11.016 L7.875,14.06 C7.952,14.105 8.048,14.105 8.125,14.06 L13.374,11.016 C13.732,10.808 14.191,10.931 14.399,11.289 C14.607,11.647 14.484,12.106 14.126,12.314 L8.878,15.358 C8.335,15.673 7.665,15.673 7.122,15.358 L1.874,12.314 C1.516,12.106 1.393,11.647 1.601,11.289 Z"/>
</svg>
